X: 1986
T: As I Went Down By Fiddichside
R: reel
M: 4/4
K: Edorian
E3B B3A|BE6F|G4 F2{GF}ED|B,8|
E3B B3A|B6BA|G3E F3D|E8:|
|:B2e2 d3c|B2E>D E3B/A/|F>FD4^D2|
E3B B3A|B6BA|G3E F3D|E8:|

